T: Na Ceannabhain Bhana
M: 9/8
L: 1/8
K: Dmaj
f2 d edB dBA |BdA ABd e2 g|fdd edB dBA| BdA ABc d2 e :||
g|faa baa fed |faa baf e2 g|faa baa fed |dBA ABc d2g|
faa baa fed | dfa baf e2 g | faa baa fed | dBA ABc d3 ||
